X:1
T:Schottis från Haverö
R:Schottis
O:Haverö, Medelpad
Z:Karl Ljungkvist, 2011-11-21
M:2/4
L:1/16
K:Dm
|: D2DE FGFE | D2A2 A4 | d^cde f2f2 | efe^c A4 |
   D2DE FGFE | D2A2 A4 | d^cde f2f2 | efe^c d4 :|
|: D2a^g a2a2 | fgfe f2f2 | efe^c A2A2 | FGFE FED2 |
   D2a^g a2a2 | fgfe f2f2 | efe^c A^ce^c | d2d2 d4 :|

